Origami/32x32/apps/dolphin-emu.svg

<svg width="32" height="32" version="1.1" viewBox="0 0 32 32" xmlns="http://www.w3.org/2000/svg">
 <path d="m29.958617 25.932688c-0.27652-1.386449-0.785699-2.343286-1.958617-2.877376-0.010185-5.72812-1.675622-12.087929-7-15.055312 0.425427-0.1844379 1.801716-0.4701556 2.225968-0.5484662 0.316788-0.0580024 0.581689-0.2554737 0.708065-0.5276498 0.126376-0.272183 0.097814-0.5838813-0.076426-0.8330255-0.165239-0.2362522-1.350005-0.8075945-3.001497-1.008036-1.85611-0.0828225-2.85611-0.0828225-5.279481 0.4046179-1.284624 0.4391917-1.908548 0.5000806-2.630937 0.5705096-0.614272 0.0599081-1.310578 0.1278533-2.416789 0.4116157-3.1859994 0.8173818-4.6847717 2.1139466-5.5349714 2.9649938-0.6637008 0.6643375-1.0307097 2.0160585-0.9939316 2.5654405-0.1579369 0.079744-0.1418851 0.093033-0.3165157 0.185188-1.1676389 0.615988-1.5719369 0.903815-1.6651863 1.394461-0.068731 0.362074 0.057515 0.599616 0.3559127 0.924207 0.4815524 0.451279 0.7553882 0.496144 1.5115529 0.496144 1.1946834-0.186508 2.1833886-0.575125 3.4002364-0.95 0.7219976-0.07029 1.344658 0.05562 2.4344371 0.270359 1.4111179 0.326703 2.9211809 0.693942 4.1741949 0.679641 0.242449 0.457573 0.645181 1.313091 1.294535 2.092277 1.69401 2.032767 3.670935 1.90629 3.873605 1.907723 0.366345 0.0049 0.657397 0.01594 0.826158-0.285012 0.168762-0.301072 0.14007-0.660527-0.07786-0.933782-0.176221-0.224282-0.81395-0.577072-0.987668-1.49641-0.04956-0.261916-0.02744-0.482783-0.0234-0.691812 2.254719 0.661225 5.734967 2.675423 6.192533 4.869408l0.01493 1.576017c-0.0064-2.75e-4 0.0065 1.41e-4 0 0-0.103683-0.0042-0.324808-0.0053-0.482615-0.0053-0.410167 0-0.854112 0.04155-1.357137 0.12178-1.633626 0.260597-2.783836 1.223724-2.894692 1.344182 0 0-0.317439 0.253158-0.133159 0.575363 0.182848 0.319927 0.543586 0.508788 0.936146 0.477995l0.01813-1.2e-4c2.497534 0.348116 5.86688 1.919802 6.893461 3.925396 0.160283 0.319948 0.508762 0.522295 0.888802 0.522295 0.02439 0 0.04891-6.92e-4 0.07343-0.0028 0.407951-0.02795 0.753821-0.285308 0.866894-0.645116 0.02882-0.09299 0.28053-1.239967 0.141895-2.419542z" style="opacity:.2"/>
 <path d="m29.958617 24.932688c-0.27652-1.386449-0.785699-2.343286-1.958617-2.877376-0.010185-5.72812-1.675622-12.087929-7-15.055312 0.425427-0.1844379 1.801716-0.4701556 2.225968-0.5484662 0.316788-0.0580024 0.581689-0.2554737 0.708065-0.5276498 0.126376-0.272183 0.097814-0.5838813-0.076426-0.8330255-0.165239-0.2362522-1.350005-0.8075945-3.001497-1.008036-1.85611-0.0828225-2.85611-0.0828225-5.279481 0.4046179-1.284624 0.4391917-1.908548 0.5000806-2.630937 0.5705096-0.614272 0.0599081-1.310578 0.1278533-2.416789 0.4116157-3.1859994 0.8173818-4.6847717 2.1139466-5.5349714 2.9649938-0.6637008 0.6643377-1.0307097 2.0160585-0.9939316 2.5654405-0.1579369 0.079744-0.1418851 0.093033-0.3165157 0.185188-1.1676389 0.615988-1.5719369 0.903815-1.6651863 1.394461-0.068731 0.362074 0.057515 0.599616 0.3559127 0.924207 0.4815524 0.451279 0.7553882 0.496144 1.5115529 0.496144 1.1946834-0.186508 2.1833886-0.575125 3.4002364-0.95 0.7219976-0.07029 1.344658 0.05562 2.4344371 0.270359 1.4111179 0.326703 2.9211809 0.693942 4.1741949 0.679641 0.242449 0.457573 0.645181 1.313091 1.294535 2.092277 1.69401 2.032767 3.670935 1.90629 3.873605 1.907723 0.366345 0.0049 0.657397 0.01594 0.826158-0.285012 0.168762-0.301072 0.14007-0.660527-0.07786-0.933782-0.176221-0.224282-0.81395-0.577072-0.987668-1.49641-0.04956-0.261916-0.02744-0.482783-0.0234-0.691812 2.254719 0.661225 5.734967 2.675423 6.192533 4.869408l0.01493 1.576017c-0.0064-2.75e-4 0.0065 1.41e-4 0 0-0.103683-0.0042-0.324808-0.0053-0.482615-0.0053-0.410167 0-0.854112 0.04155-1.357137 0.12178-1.633626 0.260597-2.783836 1.223724-2.894692 1.344182 0 0-0.317439 0.253158-0.133159 0.575363 0.182848 0.319927 0.543586 0.508788 0.936146 0.477995l0.01813-1.2e-4c2.497534 0.348116 5.86688 1.919802 6.893461 3.925396 0.160283 0.319948 0.508762 0.522295 0.888802 0.522295 0.02439 0 0.04891-6.92e-4 0.07343-0.0028 0.407951-0.02795 0.753821-0.285308 0.866894-0.645116 0.02882-0.09299 0.28053-1.239967 0.141895-2.419542z" style="fill:#489cf2"/>
 <circle cx="7" cy="11" r="1" style="opacity:.2"/>
 <circle cx="7" cy="10" r="1" style="fill:#ffffff"/>
 <path d="m19.589844 4.0429688c-1.177892-0.012092-2.196144 0.0797322-4.013672 0.4453124-1.284624 0.4391918-1.90847 0.4998836-2.63086 0.5703126-0.614271 0.0599081-1.309804 0.1263938-2.416015 0.4101562-3.1859995 0.8173818-4.6849567 2.1137965-5.5351564 2.9648438-0.6637008 0.6643376-1.0309187 2.0170242-0.9941406 2.5664062-0.1579369 0.079744-0.1417757 0.093392-0.3164062 0.185547-1.167639 0.615988-1.5727663 0.903885-1.6660157 1.394531-0.0484878 0.255434 0.0069563 0.448533 0.1445313 0.654297 0.2100748-0.313439 0.6532805-0.590807 1.5214844-1.048828 0.1746305-0.092155 0.1584693-0.105803 0.3164062-0.185547-0.0367781-0.549382 0.3304398-1.902069 0.9941406-2.5664062 0.8501997-0.8510473 2.3491569-2.147462 5.5351564-2.9648438 1.106211-0.2837624 1.801744-0.3502481 2.416015-0.4101562 0.72239-0.0704291 1.346236-0.1311208 2.63086-0.5703126 2.423371-0.4874403 3.423187-0.4890724 5.279297-0.40625 1.624583 0.1971756 2.787337 0.7511804 2.982422 0.9941407 0.035884-0.0481393 0.070305-0.0976443 0.095703-0.1523438 0.126376-0.272183 0.098068-0.582887-0.076172-0.8320312-0.165239-0.2362522-1.350461-0.8093241-3.001953-1.0097657-0.464028-0.0207056-0.872995-0.0350318-1.265625-0.0390624zm2.49414 3.6503906c-0.43833 0.1021916-0.876845 0.2168384-1.083984 0.3066406 5.324378 2.967383 6.989815 9.326567 7 15.054688 1.172362 0.533836 1.682375 1.491568 1.958984 2.876953v0.001953c0.011336 0.096751 0.007246 0.187462 0.013672 0.283203 0.028235-0.388886 0.04013-0.823992-0.013672-1.283203v-0.001953c-0.276609-1.385385-0.786622-2.343117-1.958984-2.876953-0.009455-5.317445-1.450845-11.17433-5.916016-14.361329zm-3.283203 7.9003906c-0.00404 0.209029-0.026122 0.42949 0.023438 0.691406 0.173718 0.919338 0.810107 1.271812 0.986328 1.496094 0.003378 0.004236 0.004525 0.009395 0.007812 0.013672 0.023087-0.027231 0.050516-0.044774 0.070313-0.080078 0.168762-0.301072 0.139805-0.660339-0.078125-0.933594-0.151653-0.193013-0.64331-0.483943-0.888672-1.146484-0.038758-0.011934-0.083014-0.029849-0.121094-0.041016zm5.72461 5.439453c-0.410167 0-0.854397 0.040864-1.357422 0.121094-1.633626 0.260597-2.783675 1.225245-2.894531 1.345703 0 0-0.317093 0.252014-0.132813 0.574219 0.070083 0.122624 0.17103 0.219702 0.285156 0.298828 0.337885-0.281438 1.3394-0.994977 2.742188-1.21875 0.503025-0.08023 0.947255-0.121094 1.357422-0.121094 0.157807 0 0.378738 0.001659 0.482421 0.005859l-0.009765-1c-0.10617-0.003992-0.318043-0.005859-0.472656-0.005859z" style="fill:#ffffff;opacity:.2"/>
</svg>

<svg xmlns="http://www.w3.org/2000/svg" width="32" height="32" x="0" y="0" version="1.1" viewBox="0 0 32 32" xml:space="preserve">
 <path style="opacity:0.2" d="M 29.958617,25.932688 C 29.682097,24.546239 29.172918,23.589402 28,23.055312 27.989815,17.327192 26.324378,10.967383 21,8 21.425427,7.8155621 22.801716,7.5298444 23.225968,7.4515338 23.542756,7.3935314 23.807657,7.1960601 23.934033,6.923884 24.060409,6.651701 24.031847,6.3400027 23.857607,6.0908585 23.692368,5.8546063 22.507602,5.283264 20.85611,5.0828225 19,5 18,5 15.576629,5.4874404 14.292005,5.9266321 13.668081,5.987521 12.945692,6.05795 12.33142,6.1178581 11.635114,6.1858033 10.528903,6.4695657 7.3429036,7.2869475 5.8441313,8.5835123 4.9939316,9.4345595 4.3302308,10.098897 3.9632219,11.450618 4,12 3.8420631,12.079744 3.8581149,12.093033 3.6834843,12.185188 2.5158454,12.801176 2.1115474,13.089003 2.018298,13.579649 1.949567,13.941723 2.075813,14.179265 2.3742107,14.503856 2.8557631,14.955135 3.1295989,15 3.8857636,15 5.080447,14.813492 6.0691522,14.424875 7.286,14.05 8.0079976,13.97971 8.630658,14.10562 9.7204371,14.320359 11.131555,14.647062 12.641618,15.014301 13.894632,15 c 0.242449,0.457573 0.645181,1.313091 1.294535,2.092277 1.69401,2.032767 3.670935,1.90629 3.873605,1.907723 0.366345,0.0049 0.657397,0.01594 0.826158,-0.285012 0.168762,-0.301072 0.14007,-0.660527 -0.07786,-0.933782 -0.176221,-0.224282 -0.81395,-0.577072 -0.987668,-1.49641 -0.04956,-0.261916 -0.02744,-0.482783 -0.0234,-0.691812 2.254719,0.661225 5.734967,2.675423 6.192533,4.869408 l 0.01493,1.576017 c -0.0064,-2.75e-4 0.0065,1.41e-4 0,0 -0.103683,-0.0042 -0.324808,-0.0053 -0.482615,-0.0053 -0.410167,0 -0.854112,0.04155 -1.357137,0.12178 -1.633626,0.260597 -2.783836,1.223724 -2.894692,1.344182 0,0 -0.317439,0.253158 -0.133159,0.575363 0.182848,0.319927 0.543586,0.508788 0.936146,0.477995 l 0.01813,-1.2e-4 c 2.497534,0.348116 5.86688,1.919802 6.893461,3.925396 C 28.147882,28.797653 28.496361,29 28.876401,29 c 0.02439,0 0.04891,-6.92e-4 0.07343,-0.0028 0.407951,-0.02795 0.753821,-0.285308 0.866894,-0.645116 0.02882,-0.09299 0.28053,-1.239967 0.141895,-2.419542 z"/>
 <path style="fill:#489cf2" d="M 29.958617,24.932688 C 29.682097,23.546239 29.172918,22.589402 28,22.055312 27.989815,16.327192 26.324378,9.9673829 21,7 21.425427,6.8155621 22.801716,6.5298444 23.225968,6.4515338 23.542756,6.3935314 23.807657,6.1960601 23.934033,5.923884 24.060409,5.651701 24.031847,5.3400027 23.857607,5.0908585 23.692368,4.8546063 22.507602,4.283264 20.85611,4.0828225 19,4 18,4 15.576629,4.4874404 14.292005,4.9266321 13.668081,4.987521 12.945692,5.05795 12.33142,5.1178581 11.635114,5.1858033 10.528903,5.4695657 7.3429036,6.2869475 5.8441313,7.5835123 4.9939316,8.4345595 4.3302308,9.0988972 3.9632219,10.450618 4,11 3.8420631,11.079744 3.8581149,11.093033 3.6834843,11.185188 2.5158454,11.801176 2.1115474,12.089003 2.018298,12.579649 1.949567,12.941723 2.075813,13.179265 2.3742107,13.503856 2.8557631,13.955135 3.1295989,14 3.8857636,14 5.080447,13.813492 6.0691522,13.424875 7.286,13.05 8.0079976,12.97971 8.630658,13.10562 9.7204371,13.320359 11.131555,13.647062 12.641618,14.014301 13.894632,14 c 0.242449,0.457573 0.645181,1.313091 1.294535,2.092277 1.69401,2.032767 3.670935,1.90629 3.873605,1.907723 0.366345,0.0049 0.657397,0.01594 0.826158,-0.285012 0.168762,-0.301072 0.14007,-0.660527 -0.07786,-0.933782 -0.176221,-0.224282 -0.81395,-0.577072 -0.987668,-1.49641 -0.04956,-0.261916 -0.02744,-0.482783 -0.0234,-0.691812 2.254719,0.661225 5.734967,2.675423 6.192533,4.869408 l 0.01493,1.576017 c -0.0064,-2.75e-4 0.0065,1.41e-4 0,0 -0.103683,-0.0042 -0.324808,-0.0053 -0.482615,-0.0053 -0.410167,0 -0.854112,0.04155 -1.357137,0.12178 -1.633626,0.260597 -2.783836,1.223724 -2.894692,1.344182 0,0 -0.317439,0.253158 -0.133159,0.575363 0.182848,0.319927 0.543586,0.508788 0.936146,0.477995 l 0.01813,-1.2e-4 c 2.497534,0.348116 5.86688,1.919802 6.893461,3.925396 C 28.147882,27.797653 28.496361,28 28.876401,28 c 0.02439,0 0.04891,-6.92e-4 0.07343,-0.0028 0.407951,-0.02795 0.753821,-0.285308 0.866894,-0.645116 0.02882,-0.09299 0.28053,-1.239967 0.141895,-2.419542 z"/>
 <circle style="opacity:0.2" cx="7" cy="11" r="1"/>
 <circle style="fill:#ffffff" cx="7" cy="10" r="1"/>
 <path style="fill:#ffffff;opacity:0.2" d="M 19.589844 4.0429688 C 18.411952 4.0308768 17.3937 4.122701 15.576172 4.4882812 C 14.291548 4.927473 13.667702 4.9881648 12.945312 5.0585938 C 12.331041 5.1185019 11.635508 5.1849876 10.529297 5.46875 C 7.3432975 6.2861318 5.8443403 7.5825465 4.9941406 8.4335938 C 4.3304398 9.0979314 3.9632219 10.450618 4 11 C 3.8420631 11.079744 3.8582243 11.093392 3.6835938 11.185547 C 2.5159548 11.801535 2.1108275 12.089432 2.0175781 12.580078 C 1.9690903 12.835512 2.0245344 13.028611 2.1621094 13.234375 C 2.3721842 12.920936 2.8153899 12.643568 3.6835938 12.185547 C 3.8582243 12.093392 3.8420631 12.079744 4 12 C 3.9632219 11.450618 4.3304398 10.097931 4.9941406 9.4335938 C 5.8443403 8.5825465 7.3432975 7.2861318 10.529297 6.46875 C 11.635508 6.1849876 12.331041 6.1185019 12.945312 6.0585938 C 13.667702 5.9881647 14.291548 5.927473 15.576172 5.4882812 C 17.999543 5.0008409 18.999359 4.9992088 20.855469 5.0820312 C 22.480052 5.2792068 23.642806 5.8332116 23.837891 6.0761719 C 23.873775 6.0280326 23.908196 5.9785276 23.933594 5.9238281 C 24.05997 5.6516451 24.031662 5.3409411 23.857422 5.0917969 C 23.692183 4.8555447 22.506961 4.2824728 20.855469 4.0820312 C 20.391441 4.0613256 19.982474 4.0469994 19.589844 4.0429688 z M 22.083984 7.6933594 C 21.645654 7.795551 21.207139 7.9101978 21 8 C 26.324378 10.967383 27.989815 17.326567 28 23.054688 C 29.172362 23.588524 29.682375 24.546256 29.958984 25.931641 C 29.958984 25.931641 29.958984 25.933594 29.958984 25.933594 C 29.97032 26.030345 29.96623 26.121056 29.972656 26.216797 C 30.000891 25.827911 30.012786 25.392805 29.958984 24.933594 C 29.958984 24.933594 29.958984 24.931641 29.958984 24.931641 C 29.682375 23.546256 29.172362 22.588524 28 22.054688 C 27.990545 16.737243 26.549155 10.880358 22.083984 7.6933594 z M 18.800781 15.59375 C 18.796741 15.802779 18.774659 16.02324 18.824219 16.285156 C 18.997937 17.204494 19.634326 17.556968 19.810547 17.78125 C 19.813925 17.785486 19.815072 17.790645 19.818359 17.794922 C 19.841446 17.767691 19.868875 17.750148 19.888672 17.714844 C 20.057434 17.413772 20.028477 17.054505 19.810547 16.78125 C 19.658894 16.588237 19.167237 16.297307 18.921875 15.634766 C 18.883117 15.622832 18.838861 15.604917 18.800781 15.59375 z M 24.525391 21.033203 C 24.115224 21.033203 23.670994 21.074067 23.167969 21.154297 C 21.534343 21.414894 20.384294 22.379542 20.273438 22.5 C 20.273438 22.5 19.956345 22.752014 20.140625 23.074219 C 20.210708 23.196843 20.311655 23.293921 20.425781 23.373047 C 20.763666 23.091609 21.765181 22.37807 23.167969 22.154297 C 23.670994 22.074067 24.115224 22.033203 24.525391 22.033203 C 24.683198 22.033203 24.904129 22.034862 25.007812 22.039062 L 24.998047 21.039062 C 24.891877 21.03507 24.680004 21.033203 24.525391 21.033203 z"/>
</svg>
